X: 36465
T: Secret Of Roan Inish Theme, The
R: waltz
M: 3/4
K: Gmajor
"Freely"JB2G2A2||JF12-|HF6 (B2G2)A2|JF6 {F}JG6-|HG6 A2{E}JF2G2|
{D}JE12-|HE6 {G}J(A2F2G2)|J(E6 JF3E3|H{F=E}D6)||
"In 4"J(B2G2)A2||JF12-|F6 JB2G2A2|J(F6 {GB}G6-|G6) (A2F2G2)|
JE12-|E6 {FB}G2A2B2|{GA/c/}JA12-|A6 {A}B2G2A2|
JF6- F3-(FG2)-|G6- G3 z2G|-G6- G2A2B2|H{GA/c/}JA12||
JG3-GDz d3-dc{A}B|{GA}G3-GD2 {G}JA3 z(GF
|JG3-GE2) Je3-edc|(G3-GAB) {GB}A3-A(GF|
JG3-G)z2 c3-c(de)|d3-d2(G {Ac}A6)|
{Bc}B6 {A}J(B2{cB}A2G2)|G6 (E6|{F=E}D12)|
J(G3-GD2) d3-dcB|{GA}(G3-GDG) {A/c/}JA3 zGA|
J{A}B6 {GA/c/}JA3-AGF|{B}(G3-G{AG}FD {E}JF2{BG}F E3-|HE12)||

